img/icons/facebook.svg

<svg width="30" height="30" viewBox="0 0 30 30" fill="none" xmlns="http://www.w3.org/2000/svg">
<path d="M0 15.0903C0.00174525 22.5148 5.36742 28.8364 12.6551 30V19.452H8.84969V15.0903H12.6596V11.77C12.4892 10.1966 13.0233 8.62862 14.117 7.49117C15.2106 6.35372 16.7504 5.76473 18.3189 5.88394C19.4446 5.90224 20.5676 6.00312 21.6787 6.18579V9.897H19.7828C19.1301 9.81098 18.4739 10.0279 17.999 10.4866C17.5242 10.9453 17.2821 11.5962 17.3409 12.2559V15.0903H21.4973L20.8328 19.4535H17.3409V30C25.2223 28.7467 30.7491 21.5042 29.9172 13.5193C29.0854 5.53436 22.1862 -0.3976 14.2177 0.0208346C6.24933 0.439269 0.00126667 7.06161 0 15.0903Z" fill="#88C74A"/>
</svg>

<svg width="30" height="30" fill="none" xmlns="http://www.w3.org/2000/svg"><path d="M0 15.09C.002 22.515 5.367 28.836 12.655 30V19.452H8.85V15.09h3.81v-3.32a5.344 5.344 0 011.457-4.279 5.274 5.274 0 014.202-1.607c1.126.018 2.249.12 3.36.302v3.711h-1.896a2.16 2.16 0 00-1.784.59 2.19 2.19 0 00-.658 1.769v2.834h4.156l-.664 4.363H17.34V30c7.881-1.253 13.408-8.496 12.576-16.48-.832-7.986-7.73-13.918-15.7-13.5C6.25.44.002 7.063 0 15.09z" fill="#88C74A"/></svg>
